X:38
T:Social Leprosy Is on the Rise
R:double jig
C: 1979, 2010 L.E. McCullough  
M:6/8
L:1/8
K:Dmix
|:Ad^c def|fge fed|cAB cAF|~G3 FED|
Ad^c def|gae fed|cAB cde|edc d3:|
|:~f3 ede|fed cAF|~G3 ~A3|~g3 fed|
~f3 ~g3|fed cAF|~G3 gfe|edc d3:|
|:fed cAG|~A3 ~d3|~e3 ged|~e3 ~g3|
fed cAG|~A3 dcA|~G3 FGA|GFD ~D3:|
|:~F3 EFE|DEF ~G3|~A3 fef|ged ~e3|
~F3 ~E3|DEF ~G3|~A3 FGA|GFD ~D3:|

